ui/StatusQ/src/assets/img/icons/homepage/communities.svg

<svg fill="none" height="24" viewBox="0 0 24 24" width="24" xmlns="http://www.w3.org/2000/svg"><path clip-rule="evenodd" d="m19.8164 3.74494c-.2433-.00806-.571.03259-1.1204.10445-7.7551 1.0144-13.8325 7.09181-14.8469 14.84691-.07186.5493-.11251.8771-.10445 1.1204.00679.2046.04627.2651.08855.3132.03278.0374.08849.0907.32693.1272.26874.0411.63917.043 1.23967.043h.91692c.17364-3.6438 1.69758-7.1029 4.28888-9.6942 2.5912-2.59121 6.0504-4.11548 9.6942-4.28921v-.9166c0-.6005-.0019-.97093-.043-1.23967-.0365-.23844-.0898-.29415-.1272-.32693-.0481-.04228-.1086-.08176-.3132-.08855zm.4834 3.97351c-3.2722.17249-6.3756 1.54875-8.7043 3.87735-2.32865 2.3287-3.70462 5.432-3.87702 8.7043h2.60422c.1692-2.5822 1.2701-5.025 3.1111-6.866s4.2838-2.9419 6.866-3.1111zm-7.7 12.58165h-.8736c.1667-2.2105 1.1192-4.2977 2.6975-5.8761 1.5784-1.5783 3.6656-2.5307 5.8761-2.6975v.8736c0 .4972-.0007.8232-.0222 1.0643-.0191.2138-.0498.2823-.0588.2984-.0001-.0001-.0009.0004-.0023.0015-.0008.0006-.0017.0014-.0028.0023-.0211.0173-.113.0925-.3862.2294-.3228.1616-.7818.3561-1.4369.633-.7877.3331-1.5119.817-2.1284 1.4335s-1.1004 1.3407-1.4335 2.1284c-.2769.6551-.4714 1.1141-.633 1.4369-.1369.2732-.2121.365-.2293.3862-.0019.0023-.0031.0037-.0036.0045-.0003.0003-.0004.0005-.0003.0006-.0161.009-.0846.0397-.2984.0588-.2411.0215-.5671.0222-1.0643.0222zm7.263-17.95439c.4234.01404.8301.1194 1.1904.43559.371.32568.5219.73824.5875 1.1675.0592.38715.0592.86632.0591 1.40211v.04918 7.20001.0314c0 .4571 0 .8464-.0277 1.1575-.0285.3185-.0921.6547-.2887.9512-.2145.3237-.5887.5371-.929.7076-.3681.1843-.8691.3961-1.4939.6603l-.0247.0104c-.6231.2635-1.196.6463-1.6837 1.1339-.4876.4877-.8704 1.0606-1.1339 1.6837l-.0104.0247c-.2642.6247-.476 1.1258-.6603 1.4939-.1705.3403-.3839.7145-.7076.929-.2965.1966-.6327.2602-.9512.2886-.3111.0278-.7003.0278-1.1575.0278h-.0314-7.2-.04918c-.53579.0001-1.01496.0001-1.40211-.0591-.42926-.0656-.84182-.2165-1.1675-.5876-.31619-.3602-.42155-.7669-.43559-1.1903-.01234-.3721.04575-.8157.10904-1.299l.00647-.0494c1.09669-8.3843 7.66917-14.95679 16.05347-16.05348l.0494-.00647c.4833-.06329.9269-.12138 1.299-.10904z" fill="#09101c" fill-rule="evenodd"/></svg>

<svg width="24" height="24" viewBox="0 0 24 24" fill="none" xmlns="http://www.w3.org/2000/svg">
<g id="24/communities">
<path id="body" fill-rule="evenodd" clip-rule="evenodd" d="M19.8164 3.74494C19.5731 3.73688 19.2454 3.77753 18.696 3.84939C10.9409 4.86379 4.8635 10.9412 3.8491 18.6963C3.77724 19.2456 3.73659 19.5734 3.74465 19.8167C3.75144 20.0213 3.79092 20.0818 3.8332 20.1299C3.86598 20.1673 3.92169 20.2206 4.16013 20.2571C4.42887 20.2982 4.7993 20.3001 5.3998 20.3001H6.31672C6.49036 16.6563 8.0143 13.1972 10.6056 10.6059C13.1968 8.01469 16.656 6.49042 20.2998 6.31669V5.40009C20.2998 4.79959 20.2979 4.42916 20.2568 4.16042C20.2203 3.92198 20.167 3.86627 20.1296 3.83349C20.0815 3.79121 20.021 3.75173 19.8164 3.74494ZM20.2998 7.71845C17.0276 7.89094 13.9242 9.2672 11.5955 11.5958C9.26685 13.9245 7.89088 17.0278 7.71848 20.3001H10.3227C10.4919 17.7179 11.5928 15.2751 13.4338 13.4341C15.2748 11.5931 17.7176 10.4922 20.2998 10.323V7.71845ZM12.5998 20.3001H11.7262C11.8929 18.0896 12.8454 16.0024 14.4237 14.424C16.0021 12.8457 18.0893 11.8933 20.2998 11.7265V12.6001C20.2998 13.0973 20.2991 13.4233 20.2776 13.6644C20.2585 13.8782 20.2278 13.9467 20.2188 13.9628L20.2188 13.9628C20.2187 13.9627 20.2179 13.9632 20.2165 13.9643C20.2157 13.9649 20.2148 13.9657 20.2137 13.9666C20.1926 13.9839 20.1007 14.0591 19.8275 14.196C19.5047 14.3576 19.0457 14.5521 18.3906 14.829C17.6029 15.1621 16.8787 15.646 16.2622 16.2625C15.6457 16.879 15.1618 17.6032 14.8287 18.3909C14.5518 19.046 14.3573 19.505 14.1957 19.8278C14.0588 20.101 13.9836 20.1928 13.9664 20.214C13.9645 20.2163 13.9633 20.2177 13.9628 20.2185C13.9625 20.2188 13.9624 20.219 13.9625 20.2191L13.9625 20.2191C13.9464 20.2281 13.8779 20.2588 13.6641 20.2779C13.423 20.2994 13.097 20.3001 12.5998 20.3001ZM19.8628 2.34571C20.2862 2.35975 20.6929 2.46511 21.0532 2.7813C21.4242 3.10698 21.5751 3.51954 21.6407 3.9488C21.6999 4.33595 21.6999 4.81512 21.6998 5.35091L21.6998 5.40009V12.6001V12.6315C21.6998 13.0886 21.6998 13.4779 21.6721 13.789C21.6436 14.1075 21.58 14.4437 21.3834 14.7402C21.1689 15.0639 20.7947 15.2773 20.4544 15.4478C20.0863 15.6321 19.5853 15.8439 18.9605 16.1081L18.9358 16.1185C18.3127 16.382 17.7398 16.7648 17.2521 17.2524C16.7645 17.7401 16.3817 18.313 16.1182 18.9361L16.1078 18.9608C15.8436 19.5855 15.6318 20.0866 15.4475 20.4547C15.277 20.795 15.0636 21.1692 14.7399 21.3837C14.4434 21.5803 14.1072 21.6439 13.7887 21.6723C13.4776 21.7001 13.0884 21.7001 12.6312 21.7001H12.5998H5.3998L5.35062 21.7001C4.81483 21.7002 4.33566 21.7002 3.94851 21.641C3.51925 21.5754 3.10669 21.4245 2.78101 21.0534C2.46482 20.6932 2.35946 20.2865 2.34542 19.8631C2.33308 19.491 2.39117 19.0474 2.45446 18.5641L2.46093 18.5147C3.55762 10.1304 10.1301 3.55791 18.5144 2.46122L18.5638 2.45475C19.0471 2.39146 19.4907 2.33337 19.8628 2.34571Z" fill="#09101C"/>
</g>
</svg>
